X: 25857
T: Masurkka Ullan
R: mazurka
M: 3/4
K: Bminor
|:f>g f>e d>c|B>c d2 F2|^A>B c2 F2|B>c d>e f>g|
f>g f>e d>c|Bc d2 F2|^A>B c>e d>c|1 B2 B4:|2 B2 B3||
|:c/B/|A>c e>g fe|f2 f2- f>g|a2 g2 e2|f>g f>e d2|
c>d e>g f>e|fe d2- d2|c>d c>B ^A>G|F2 F4|
F>^A Bc e2|d>e f2- f>g|a2 g2 e2|f>g f>e d2|
c>d e>g f>e|f>e d>e f>>g|f>e d>c B^A|1 B2 B3:|2 B2 B4||

